X:1
T:Engelska frn Skne
C:Trad
R:Engelska
O:Skne
M:2/4
L:1/16
K:D
|: d4 A4 | f4 d4 | a2af d2df | A2Bc d4 :|
|: ceaf fece | edBd dcBA | ceaf fece | e2dB A4 :|
